capcom/_inc/system.svg

<svg xmlns="http://www.w3.org/2000/svg"><path d="m430.086 0c-19.128 0-36.186 8.259-47.274 21.162-3.273-4.206-7.272-8.622-11.646-11.73-9.177-6.849-21.072-8.937-33.789-9.279-21.522-.579-38.739 11.052-46.668 24.126-6.699-13.365-12.705-20.34-36.009-21.498h-56.466l.012 23.535s2.685.855 3.594 1.854c.756.831 1.26 3.126 1.26 3.126l-.132 52.386s-1.476-1.071-2.064-1.758c-1.098-1.275-2.652-4.296-2.652-4.296l-28.932-74.874-36.687.027-31.875 83.331v-17.835h-22.941c-1.806 4.977-6.876 8.343-12.996 8.343-3.222 0-6.669-.762-9.465-2.439-3.639-2.187-6.357-4.782-8.598-9.399-1.761-4.272-3.111-9.501-3.264-14.124.534-9.15 3.315-12.411 8.403-16.185 1.128-.837 4.281-1.506 5.19-1.509 2.001-.009 3.666 1.203 4.569 2.991 1.314 2.598-.609 5.748-2.511 7.989l18.546 12.777 28.647-29.973c-9.993-15.927-28.254-26.589-49.125-26.589-31.599 0-57.213 24.441-57.213 54.588 0 30.15 24.795 52.95 57.213 55.41l4.098.165h43.608v-.021h101.526v-.009l38.169-.054v-.06h5.97v-22.428s-3.198-.666-4.515-1.563c-1.383-.939-1.515-2.424-1.515-2.424-.024-.57.093-1.011.393-1.383.294-.369.984-.615 1.245-.672 3.942-.825 7.959-1.953 11.982-3.399 10.737-3.861 19.77-9.354 26.184-15.423 4.29 25.353 26.574 43.857 53.511 46.944 1.761.201 3.276.354 4.92.414.438.015 1.311-.018 1.311-.018h38.1l-.117-18.75c9.909 11.001 29.214 21.543 48.696 21.543 15.921 0 30.204-6.972 40.269-15.591l-.084 12.966h48.108l.246-19.836 12.543.162v-.219l16.83.147v19.674h51.309v-26.067s-2.19-.141-3.048-.741c-1.158-.807-2.358-3.525-2.358-3.525l-7.212-47.892s.216-3.204 1.146-4.398c.765-.984 3.279-1.803 3.279-1.803v-23.115h-4.593-7.377-39.18v.654l-3.606 12.132-5.19-12.21v-.576h-.243l-.141-.327-.009.327h-49.356v24.261l-3.372-4.59c-9.258-13.497-25.509-22.452-44.016-22.452-.756 0-1.506.012-2.253.042-.792-.027-1.587-.042-2.385-.042zm-329.964 90.852-.003.237h-.216c.075-.078.147-.159.219-.237z" fill="#141414"/><g fill="#fff"><path d="m57.174 10.413c-26.046.165-47.322 19.14-47.322 43.959s23.487 46.14 51.912 45.498l27.624.075v-21.744h-5.22c-1.638 4.098-9.294 8.112-14.844 8.112-2.925 0-10.29-.399-13.011-1.353-4.812-1.686-11.673-4.104-17.64-14.133-1.599-3.516-6.102-12.081-5.094-24.579.486-7.53 5.271-16.932 13.854-21.192 3.744-1.854 7.512-2.16 14.13-1.56 4.749.432 9.471 3.771 11.118 7.782 1.275 3.099.909 6.876-.591 9.03-.108.153-.111.288-.09.435.018.111.162.3.162.3l2.616 2.04s.744.519 1.614.495c.504-.015 1.407-.564 1.407-.564l14.931-15.669c-9.228-12.453-25.635-16.932-35.556-16.932z"/><path d="m430.329 9.993c-27.615 0-50.001 20.772-50.001 46.395s22.386 46.392 50.001 46.392 50.001-20.769 50.001-46.392-22.386-46.395-50.001-46.395zm.327 14.424c14.214 0 21.831 10.173 24.921 22.299.882 3.468.525 15.009-.003 18.852-1.605 11.718-11.184 23.139-25.08 22.785-13.542-.342-22.602-6.648-25.41-23.604-.819-4.962-.834-10.92-.165-15.903 1.938-14.448 11.523-24.429 25.737-24.429z"/><path d="m139.5 12.876s-21.957 59.412-25.893 70.233c-3.936 10.818-8.361 10.491-8.361 10.491l.327 6.555 26.538-.006.021-6.297s-1.704-.087-2.952-1.236c-2.421-2.22-.888-6.693-.888-6.693l6.135-15.696 27.252.057s5.313 13.263 6.612 17.64c1.698 5.709-3.606 5.814-3.606 5.814v6.399l33.561-.018-.021-6.33s-2.001-.303-4.125-2.157c-2.412-2.103-4.053-6.441-4.053-6.441l-27.483-72.255zm7.878 18.267 9.096 25.326-17.622.081z"/><path d="m208.968 12.78-.129 7.284s2.133.612 4.173 2.877c1.083 1.2.414 16.44.414 16.44l-.036 48.789s.693 1.923-1.641 3.855c-.879.729-1.659 1.503-3.021 1.623l-.162 6.489 31.101.075.075-6.603s-1.098-.432-2.826-1.989c-.972-.879-1.572-2.142-1.557-3.402.024-4.41.129-8.643.105-12.945 10.896-2.625 20.301-7.077 23.967-8.424 13.779-5.499 24.474-14.232 23.847-29.805-.117-11.034-5.715-20.079-17.703-22.122-5.466-1.578-7.977-1.854-10.131-1.977zm35.571 12.369c3.354-.063 7.305.708 10.347 2.238 3.789 2.517 6.099 5.124 6.099 10.641.156 2.592-.591 4.821-1.836 7.089-1.302 2.166-5.229 6.33-7.71 8.709-7.254 5.184-9.846 6.705-15.609 9.357l-.093-36.963c3.072-.576 5.826-1.05 8.802-1.071z"/><path d="m340.449 10.473c-26.049.162-47.322 19.137-47.322 43.956s23.484 46.14 51.912 45.498l27.624.078v-21.747h-5.22c-1.638 4.101-9.294 8.112-14.844 8.112-2.925 0-10.29-.399-13.014-1.353-4.809-1.683-11.673-4.101-17.637-14.13-1.599-3.516-6.102-12.084-5.097-24.579.489-7.533 5.271-16.935 13.857-21.192 3.744-1.857 7.512-2.16 14.127-1.56 4.752.429 9.471 3.771 11.121 7.779 1.272 3.099.909 6.876-.594 9.03-.105.153-.108.288-.087.435.018.114.162.3.162.3l2.616 2.043s.744.516 1.614.492c.504-.015 1.407-.561 1.407-.561l14.931-15.672c-9.231-12.456-25.638-16.929-35.556-16.929z"/><path d="m492.828 12.954.027 6.258s2.736.735 3.825 1.593c1.239.984.927 2.727.927 2.727s-9.924 61.683-10.143 62.829c-.231 1.23-.558 4.107-2.289 5.709-1.722 1.59-3.708 1.911-3.708 1.911l-.03 6.171h27.792v-5.766s-2.262-.174-3.768-1.683c-1.509-1.506-1.071-5.649-1.071-5.649l6.837-46.599 13.911 40.107 16.944.231 13.761-43.191 7.683 49.683s.927 3.735-1.071 5.652c-1.539 1.476-3.768 1.68-3.768 1.68v5.769h32.196l-.027-6.171s-.72.246-2.55-1.221c-1.077-.861-1.593-4.707-1.824-5.94-.216-1.143-8.892-63.21-8.892-63.21s-.15-2.565 1.257-3.873c1.014-.945 3.087-1.839 3.087-1.839l-.051-5.112-33.426-.039-12.231 35.235-11.667-35.235z"/></g></svg>

<?xml version="1.0" encoding="utf-8"?>
<svg version="1.1" xmlns="http://www.w3.org/2000/svg" xmlns:bx="https://boxy-svg.com">
  <g>
    <path d="M 430.086 0 C 410.958 0 393.9 8.259 382.812 21.162 C 379.539 16.956 375.54 12.54 371.166 9.432 C 361.989 2.583 350.094 0.495 337.377 0.153 C 315.855 -0.426 298.638 11.205 290.709 24.279 C 284.01 10.914 278.004 3.939 254.7 2.781 L 198.234 2.781 L 198.246 26.316 C 198.246 26.316 200.931 27.171 201.84 28.17 C 202.596 29.001 203.1 31.296 203.1 31.296 L 202.968 83.682 C 202.968 83.682 201.492 82.611 200.904 81.924 C 199.806 80.649 198.252 77.628 198.252 77.628 L 169.32 2.754 L 132.633 2.781 L 100.758 86.112 L 100.758 68.277 L 77.817 68.277 C 76.011 73.254 70.941 76.62 64.821 76.62 C 61.599 76.62 58.152 75.858 55.356 74.181 C 51.717 71.994 48.999 69.399 46.758 64.782 C 44.997 60.51 43.647 55.281 43.494 50.658 C 44.028 41.508 46.809 38.247 51.897 34.473 C 53.025 33.636 56.178 32.967 57.087 32.964 C 59.088 32.955 60.753 34.167 61.656 35.955 C 62.97 38.553 61.047 41.703 59.145 43.944 L 77.691 56.721 L 106.338 26.748 C 96.345 10.821 78.084 0.159 57.213 0.159 C 25.614 0.159 0 24.6 0 54.747 C 0 84.897 24.795 107.697 57.213 110.157 L 61.311 110.322 L 104.919 110.322 L 104.919 110.301 L 206.445 110.301 L 206.445 110.292 L 244.614 110.238 L 244.614 110.178 L 250.584 110.178 L 250.584 87.75 C 250.584 87.75 247.386 87.084 246.069 86.187 C 244.686 85.248 244.554 83.763 244.554 83.763 C 244.53 83.193 244.647 82.752 244.947 82.38 C 245.241 82.011 245.931 81.765 246.192 81.708 C 250.134 80.883 254.151 79.755 258.174 78.309 C 268.911 74.448 277.944 68.955 284.358 62.886 C 288.648 88.239 310.932 106.743 337.869 109.83 C 339.63 110.031 341.145 110.184 342.789 110.244 C 343.227 110.259 344.1 110.226 344.1 110.226 L 382.2 110.226 L 382.083 91.476 C 391.992 102.477 411.297 113.019 430.779 113.019 C 446.7 113.019 460.983 106.047 471.048 97.428 L 470.964 110.394 L 519.072 110.394 L 519.318 90.558 L 531.861 90.72 L 531.861 90.501 L 548.691 90.648 L 548.691 110.322 L 600 110.322 L 600 84.255 C 600 84.255 597.81 84.114 596.952 83.514 C 595.794 82.707 594.594 79.989 594.594 79.989 L 587.382 32.097 C 587.382 32.097 587.598 28.893 588.528 27.699 C 589.293 26.715 591.807 25.896 591.807 25.896 L 591.807 2.781 L 587.214 2.781 L 579.837 2.781 L 540.657 2.781 L 540.657 3.435 L 537.051 15.567 L 531.861 3.357 L 531.861 2.781 L 531.618 2.781 L 531.477 2.454 L 531.468 2.781 L 482.112 2.781 L 482.112 27.042 L 478.74 22.452 C 469.482 8.955 453.231 0 434.724 0 C 433.968 0 433.218 0.012 432.471 0.042 C 431.679 0.015 430.884 0 430.086 0 Z M 100.122 90.852 L 100.119 91.089 L 99.903 91.089 C 99.978 91.011 100.05 90.93 100.122 90.852 L 100.122 90.852 Z" id="path3840" style="fill-opacity: 1; stroke: none; fill: rgb(20, 20, 20);" bx:origin="0 0"/>
    <path d="M 57.174 10.413 C 31.128 10.578 9.852 29.553 9.852 54.372 C 9.852 79.191 33.339 100.512 61.764 99.87 L 89.388 99.945 L 89.388 78.201 L 84.168 78.201 C 82.53 82.299 74.874 86.313 69.324 86.313 C 66.399 86.313 59.034 85.914 56.313 84.96 C 51.501 83.274 44.64 80.856 38.673 70.827 C 37.074 67.311 32.571 58.746 33.579 46.248 C 34.065 38.718 38.85 29.316 47.433 25.056 C 51.177 23.202 54.945 22.896 61.563 23.496 C 66.312 23.928 71.034 27.267 72.681 31.278 C 73.956 34.377 73.59 38.154 72.09 40.308 C 71.982 40.461 71.979 40.596 72 40.743 C 72.018 40.854 72.162 41.043 72.162 41.043 L 74.778 43.083 C 74.778 43.083 75.522 43.602 76.392 43.578 C 76.896 43.563 77.799 43.014 77.799 43.014 L 92.73 27.345 C 83.502 14.892 67.095 10.413 57.174 10.413 Z" id="path3950" style="fill-opacity: 1; stroke: none; fill: rgb(255, 255, 255);" bx:origin="-0.119 -0.116"/>
    <path d="M 430.329 9.993 C 402.714 9.993 380.328 30.765 380.328 56.388 C 380.328 82.011 402.714 102.78 430.329 102.78 C 457.944 102.78 480.33 82.011 480.33 56.388 C 480.33 30.765 457.944 9.993 430.329 9.993 Z M 430.656 24.417 C 444.87 24.417 452.487 34.59 455.577 46.716 C 456.459 50.184 456.102 61.725 455.574 65.568 C 453.969 77.286 444.39 88.707 430.494 88.353 C 416.952 88.011 407.892 81.705 405.084 64.749 C 404.265 59.787 404.25 53.829 404.919 48.846 C 406.857 34.398 416.442 24.417 430.656 24.417 L 430.656 24.417 Z" id="path3990" style="fill-opacity: 1; stroke: none; fill: rgb(255, 255, 255);" bx:origin="-3.803 -0.108"/>
    <path d="M 139.5 12.876 C 139.5 12.876 117.543 72.288 113.607 83.109 C 109.671 93.927 105.246 93.6 105.246 93.6 L 105.573 100.155 L 132.111 100.149 L 132.132 93.852 C 132.132 93.852 130.428 93.765 129.18 92.616 C 126.759 90.396 128.292 85.923 128.292 85.923 L 134.427 70.227 L 161.679 70.284 C 161.679 70.284 166.992 83.547 168.291 87.924 C 169.989 93.633 164.685 93.738 164.685 93.738 L 164.685 100.137 L 198.246 100.119 L 198.225 93.789 C 198.225 93.789 196.224 93.486 194.1 91.632 C 191.688 89.529 190.047 85.191 190.047 85.191 L 162.564 12.936 L 139.5 12.876 Z M 147.378 31.143 L 156.474 56.469 L 138.852 56.55 L 147.378 31.143 Z" id="path4001" style="fill-opacity: 1; stroke: none; fill: rgb(255, 255, 255);" bx:origin="-1.132 -0.148"/>
    <path d="M 208.968 12.78 L 208.839 20.064 C 208.839 20.064 210.972 20.676 213.012 22.941 C 214.095 24.141 213.426 39.381 213.426 39.381 L 213.39 88.17 C 213.39 88.17 214.083 90.093 211.749 92.025 C 210.87 92.754 210.09 93.528 208.728 93.648 L 208.566 100.137 L 239.667 100.212 L 239.742 93.609 C 239.742 93.609 238.644 93.177 236.916 91.62 C 235.944 90.741 235.344 89.478 235.359 88.218 C 235.383 83.808 235.488 79.575 235.464 75.273 C 246.36 72.648 255.765 68.196 259.431 66.849 C 273.21 61.35 283.905 52.617 283.278 37.044 C 283.161 26.01 277.563 16.965 265.575 14.922 C 260.109 13.344 257.598 13.068 255.444 12.945 L 208.968 12.78 Z M 244.539 25.149 C 247.893 25.086 251.844 25.857 254.886 27.387 C 258.675 29.904 260.985 32.511 260.985 38.028 C 261.141 40.62 260.394 42.849 259.149 45.117 C 257.847 47.283 253.92 51.447 251.439 53.826 C 244.185 59.01 241.593 60.531 235.83 63.183 L 235.737 26.22 C 238.809 25.644 241.563 25.17 244.539 25.149 Z" id="rect3593" style="fill-opacity: 1; stroke: none; fill: rgb(255, 255, 255);" bx:origin="-2.791 -0.146"/>
    <path d="M 340.449 10.473 C 314.4 10.635 293.127 29.61 293.127 54.429 C 293.127 79.248 316.611 100.569 345.039 99.927 L 372.663 100.005 L 372.663 78.258 L 367.443 78.258 C 365.805 82.359 358.149 86.37 352.599 86.37 C 349.674 86.37 342.309 85.971 339.585 85.017 C 334.776 83.334 327.912 80.916 321.948 70.887 C 320.349 67.371 315.846 58.803 316.851 46.308 C 317.34 38.775 322.122 29.373 330.708 25.116 C 334.452 23.259 338.22 22.956 344.835 23.556 C 349.587 23.985 354.306 27.327 355.956 31.335 C 357.228 34.434 356.865 38.211 355.362 40.365 C 355.257 40.518 355.254 40.653 355.275 40.8 C 355.293 40.914 355.437 41.1 355.437 41.1 L 358.053 43.143 C 358.053 43.143 358.797 43.659 359.667 43.635 C 360.171 43.62 361.074 43.074 361.074 43.074 L 376.005 27.402 C 366.774 14.946 350.367 10.473 340.449 10.473 Z" id="path3622" style="fill-opacity: 1; stroke: none; fill: rgb(255, 255, 255);" bx:origin="-3.537 -0.117"/>
    <path d="M 492.828 12.954 L 492.855 19.212 C 492.855 19.212 495.591 19.947 496.68 20.805 C 497.919 21.789 497.607 23.532 497.607 23.532 C 497.607 23.532 487.683 85.215 487.464 86.361 C 487.233 87.591 486.906 90.468 485.175 92.07 C 483.453 93.66 481.467 93.981 481.467 93.981 L 481.437 100.152 L 509.229 100.152 L 509.229 94.386 C 509.229 94.386 506.967 94.212 505.461 92.703 C 503.952 91.197 504.39 87.054 504.39 87.054 L 511.227 40.455 L 525.138 80.562 L 542.082 80.793 L 555.843 37.602 L 563.526 87.285 C 563.526 87.285 564.453 91.02 562.455 92.937 C 560.916 94.413 558.687 94.617 558.687 94.617 L 558.687 100.386 L 590.883 100.386 L 590.856 94.215 C 590.856 94.215 590.136 94.461 588.306 92.994 C 587.229 92.133 586.713 88.287 586.482 87.054 C 586.266 85.911 577.59 23.844 577.59 23.844 C 577.59 23.844 577.44 21.279 578.847 19.971 C 579.861 19.026 581.934 18.132 581.934 18.132 L 581.883 13.02 L 548.457 12.981 L 536.226 48.216 L 524.559 12.981 L 492.828 12.954 Z" id="path3624" style="fill-opacity: 1; stroke: none; fill: rgb(255, 255, 255);" bx:origin="-4.399 -0.148"/>
  </g>
</svg>
